Adwaita++-Light/panel/16/deluge-panel.svg

<svg height="16" width="16" xmlns="http://www.w3.org/2000/svg">
  <g fill="#444">
    <path d="m7.4101562 1c-.7988134 1.067408-2.5257672 3.0867852-3.8164062 5.2851562.9493907-.9149311 1.9238809-1.2843776 2.8144531-1.2851562 2.9002197-.0025095 5.3713169 3.671614 4.3242189 4.0507812-.8336507-1.6998065-2.2062316-2.0241847-3.2343751-2.0507812-1.3499989-.0349216-2.4470061 1.3177672-2.4980469 2.8925781-.1180974 3.6437779 5.268419 3.2096689 5.976562 4.3222659.614656-.327794 1.131122-.754402 1.480469-1.289063 2.358029-3.6084616-3.6529747-9.737861-5.0468748-11.925781zm-3.8164062 5.2851562c-.3425244.5834287-.6557206 1.1765554-.9101562 1.7714844.255298-.5936178.5678139-1.1883659.9101562-1.7714844zm-.9101562 1.7714844c-.1272382.2975119-.2403848.5936465-.3359376.8886719.0958994-.2944555.2082886-.591863.3359376-.8886719zm-.3359376.8886719c-.0953191.2943041-.1750321.5867237-.2324218.875.0574906-.2887832.1365225-.5805445.2324218-.875zm-.2324218.875c-.0500402.2513585-.0790474.4979375-.0957032.7421875.0154225-.225464.0522343-.481734.0957032-.7421875zm-.0957032.7421875c-.0069643.102129-.0072102.202139-.0078124.302734-.0005247-.100413.0024508-.200722.0078124-.302734zm-.0039062.378906c.0025239.235433.0215324.466284.0625.691406-.0243206-.135405-.0376521-.274234-.0488281-.414062-.0068291-.091758-.0116053-.184453-.0136719-.277344zm.1386719 1c.0326007.118812.0601549.238532.1054687.353516-.0422659-.11532-.0733548-.233991-.1054687-.353516zm.3886719.914063c.014239.022569.0202962.047946.0351562.070312.0139912.021056.0343286.037857.0488281.058594-.01444-.02066-.032938-.037624-.046875-.058594-.0148306-.022322-.0248084-.046841-.0371093-.070312zm.4023437.519531c.0434496.045817.0925413.086979.1386719.130859-.0459639-.043746-.0948951-.085503-.1386719-.130859zm.1386719.130859c.1433655.136371.2959446.265161.4628906.382813-.0557781-.039318-.1088344-.079684-.1621094-.121094-.1062768-.082579-.2052382-.170829-.3007812-.261719zm.8398437.623047c.0507179.029055.1001614.058342.1523438.085938-.0523104-.027818-.1017228-.056459-.1523438-.085938zm6.5253909.333985c-.07204.02935-.148736.053148-.222657.080078.074155-.026982.150394-.050664.222657-.080078zm-.6484378.222656c-.0630815.017869-.1272895.034499-.1914062.050781.0641474-.016696.128222-.03246.1914062-.050781zm-4.5214843.007812c.2103611.060079.4269606.10806.6464843.150391-.1595553-.030726-.3157498-.067322-.4707031-.107422-.0582323-.015062-.1182813-.026651-.1757812-.042969zm.6464843.150391c.0817322.01576.1633974.02967.2460938.042969-.0822699-.01322-.1647777-.027319-.2460938-.042969zm3.265625-.011719c-.098851.01985-.198485.038488-.2988281.054688-.0722228.01164-.145887.019597-.21875.029297.1745543-.023322.3471388-.049809.5175781-.083985zm-.5175781.083985c-.3377129.04524-.6787083.073525-1.0234375.078125.344092-.0046.6863394-.033087 1.0234375-.078125zm-2.1894531.011718c.3553699.043415.713052.071363 1.0742188.070313-.3600945.00108-.719885-.027173-1.0742188-.070313z"/>
    <path d="m6.4082031 5c-.8905722.0007786-1.8650624.3702251-2.8144531 1.2851562-.6846846 1.166237-1.248553 2.3800234-1.4785156 3.5351563-.0434689.2604535-.0802807.5167235-.0957032.7421875-.0053962.10267-.008386.203626-.0078124.304688.000011.001942-.0000132.003917 0 .005859-.0001024.023085.0033966.045454.0039062.068359.0020666.092891.0068428.185586.0136719.277344.011176.139828.0245075.278656.0488281.414062.0003395.001891-.0003437.003971 0 .00586.018811.102468.0487769.202744.0761719.302734.0321139.119525.0632028.238196.1054687.353516.0733749.186189.1645413.36803.2734375.542969.0175903.028459.0282939.059923.046875.08789.013937.02097.032435.037934.046875.058594.0319523.045697.0711091.086715.1054688.130859.0686619.088214.1351171.177755.2128906.259766.0437768.045356.092708.087113.1386719.130859.095543.09089.1945044.17914.3007812.261719.053275.04141.1063313.081776.1621094.121094.0575184.040535.1196495.076922.1796875.115234.0585121.037522.1149781.078027.1757813.113282.0071025.004117.0144024.007594.0214843.011718.0513919.029928.1010855.059696.1542969.087891.001307.000692.0025965.001263.0039062.001953.1792326.094489.3641387.182461.5585938.259766h.0019531c.1644723.065329.3383946.120797.5117188.173828.0417854.012661.0809.028976.1230469.041015.0005998.000172.0013531-.000171.0019531 0 .0574999.016318.1175489.027907.1757812.042969.1549533.0401.3111478.076696.4707031.107422.0813161.01565.1638239.029749.2460938.042969.1034461.01662.2078386.028255.3125.041015.3543338.04314.7141243.071393 1.0742188.070313.030559-.000086.0612468-.003506.0917968-.003906.3447292-.0046.6857246-.032885 1.0234375-.078125.072863-.0097.1465272-.017657.21875-.029297.1003431-.0162.1999771-.034838.2988281-.054688.1255522-.0252.250451-.052884.3730469-.083984.0084383-.002142.0169582-.003736.0253907-.005859.0713207-.017957.1427369-.036744.2128906-.056641.1259642-.036561.2475356-.080023.3691406-.123047.018134-.006529.036593-.012945.054687-.019531.07392-.02693.150617-.050728.222657-.080078.182879-.074454.358413-.157998.527343-.248047-.708144-1.112597-6.0946594-.678488-5.976562-4.3222659.0510408-1.5748109 1.148048-2.9274997 2.4980469-2.8925781 1.0281435.0265965 2.4007245.3509746 3.2343751 2.0507812 1.047098-.3791673-1.4239992-4.0532907-4.3242189-4.0507812z" fill-rule="evenodd" opacity=".3"/>
  </g>
</svg>

<svg xmlns="http://www.w3.org/2000/svg" width="16" height="16" version="1.1">
 <defs>
  <style id="current-color-scheme" type="text/css">
   .ColorScheme-Text { color:#444444; } .ColorScheme-Highlight { color:#4285f4; }
  </style>
 </defs>
 <path style="fill:currentColor" class="ColorScheme-Text" d="M 7.4101562 1 C 6.6113428 2.067408 4.884389 4.0867852 3.59375 6.2851562 C 4.5431407 5.3702251 5.5176309 5.0007786 6.4082031 5 C 9.3084228 4.9974905 11.77952 8.671614 10.732422 9.0507812 C 9.8987713 7.3509747 8.5261904 7.0265965 7.4980469 7 C 6.148048 6.9650784 5.0510408 8.3177672 5 9.8925781 C 4.8819026 13.536356 10.268419 13.102247 10.976562 14.214844 C 11.591218 13.88705 12.107684 13.460442 12.457031 12.925781 C 14.81506 9.3173194 8.8040563 3.18792 7.4101562 1 z M 3.59375 6.2851562 C 3.2512256 6.8685849 2.9380294 7.4617116 2.6835938 8.0566406 C 2.9388918 7.4630228 3.2514077 6.8682747 3.59375 6.2851562 z M 2.6835938 8.0566406 C 2.5563556 8.3541525 2.443209 8.6502871 2.3476562 8.9453125 C 2.4435556 8.650857 2.5559448 8.3534495 2.6835938 8.0566406 z M 2.3476562 8.9453125 C 2.2523371 9.2396166 2.1726241 9.5320362 2.1152344 9.8203125 C 2.172725 9.5315293 2.2517569 9.239768 2.3476562 8.9453125 z M 2.1152344 9.8203125 C 2.0651942 10.071671 2.036187 10.31825 2.0195312 10.5625 C 2.0349537 10.337036 2.0717655 10.080766 2.1152344 9.8203125 z M 2.0195312 10.5625 C 2.0125669 10.664629 2.012321 10.764639 2.0117188 10.865234 C 2.0111941 10.764821 2.0141696 10.664512 2.0195312 10.5625 z M 2.015625 10.941406 C 2.0181489 11.176839 2.0371574 11.40769 2.078125 11.632812 C 2.0538044 11.497407 2.0404729 11.358578 2.0292969 11.21875 C 2.0224678 11.126992 2.0176916 11.034297 2.015625 10.941406 z M 2.1542969 11.941406 C 2.1868976 12.060218 2.2144518 12.179938 2.2597656 12.294922 C 2.2174997 12.179602 2.1864108 12.060931 2.1542969 11.941406 z M 2.5429688 12.855469 C 2.5572078 12.878038 2.563265 12.903415 2.578125 12.925781 C 2.5921162 12.946837 2.6124536 12.963638 2.6269531 12.984375 C 2.6125131 12.963715 2.5940151 12.946751 2.5800781 12.925781 C 2.5652475 12.903459 2.5552697 12.87894 2.5429688 12.855469 z M 2.9453125 13.375 C 2.9887621 13.420817 3.0378538 13.461979 3.0839844 13.505859 C 3.0380205 13.462113 2.9890893 13.420356 2.9453125 13.375 z M 3.0839844 13.505859 C 3.2273499 13.64223 3.379929 13.77102 3.546875 13.888672 C 3.4910969 13.849354 3.4380406 13.808988 3.3847656 13.767578 C 3.2784888 13.684999 3.1795274 13.596749 3.0839844 13.505859 z M 3.9238281 14.128906 C 3.974546 14.157961 4.0239895 14.187248 4.0761719 14.214844 C 4.0238615 14.187026 3.9744491 14.158385 3.9238281 14.128906 z M 10.449219 14.462891 C 10.377179 14.492241 10.300483 14.516039 10.226562 14.542969 C 10.300717 14.515987 10.376956 14.492305 10.449219 14.462891 z M 9.8007812 14.685547 C 9.7376997 14.703416 9.6734917 14.720046 9.609375 14.736328 C 9.6735224 14.719632 9.737597 14.703868 9.8007812 14.685547 z M 5.2792969 14.693359 C 5.489658 14.753438 5.7062575 14.801419 5.9257812 14.84375 C 5.7662259 14.813024 5.6100314 14.776428 5.4550781 14.736328 C 5.3968458 14.721266 5.3367968 14.709677 5.2792969 14.693359 z M 5.9257812 14.84375 C 6.0075134 14.85951 6.0891786 14.87342 6.171875 14.886719 C 6.0896051 14.873499 6.0070973 14.8594 5.9257812 14.84375 z M 9.1914062 14.832031 C 9.0925552 14.851881 8.9929212 14.870519 8.8925781 14.886719 C 8.8203553 14.898359 8.7466911 14.906316 8.6738281 14.916016 C 8.8483824 14.892694 9.0209669 14.866207 9.1914062 14.832031 z M 8.6738281 14.916016 C 8.3361152 14.961256 7.9951198 14.989541 7.6503906 14.994141 C 7.9944826 14.989541 8.33673 14.961054 8.6738281 14.916016 z M 6.484375 14.927734 C 6.8397449 14.971149 7.197427 14.999097 7.5585938 14.998047 C 7.1984993 14.999127 6.8387088 14.970874 6.484375 14.927734 z"/>
 <path style="opacity:0.3;fill:currentColor;fill-rule:evenodd" class="ColorScheme-Text" d="M 6.4082031 5 C 5.5176309 5.0007786 4.5431407 5.3702251 3.59375 6.2851562 C 2.9090654 7.4513932 2.345197 8.6651796 2.1152344 9.8203125 C 2.0717655 10.080766 2.0349537 10.337036 2.0195312 10.5625 C 2.014135 10.66517 2.0111452 10.766126 2.0117188 10.867188 C 2.0117298 10.86913 2.0117056 10.871105 2.0117188 10.873047 C 2.0116164 10.896132 2.0151154 10.918501 2.015625 10.941406 C 2.0176916 11.034297 2.0224678 11.126992 2.0292969 11.21875 C 2.0404729 11.358578 2.0538044 11.497406 2.078125 11.632812 C 2.0784645 11.634703 2.0777813 11.636783 2.078125 11.638672 C 2.096936 11.74114 2.1269019 11.841416 2.1542969 11.941406 C 2.1864108 12.060931 2.2174997 12.179602 2.2597656 12.294922 C 2.3331405 12.481111 2.4243069 12.662952 2.5332031 12.837891 C 2.5507934 12.86635 2.561497 12.897814 2.5800781 12.925781 C 2.5940151 12.946751 2.6125131 12.963715 2.6269531 12.984375 C 2.6589054 13.030072 2.6980622 13.07109 2.7324219 13.115234 C 2.8010838 13.203448 2.867539 13.292989 2.9453125 13.375 C 2.9890893 13.420356 3.0380205 13.462113 3.0839844 13.505859 C 3.1795274 13.596749 3.2784888 13.684999 3.3847656 13.767578 C 3.4380406 13.808988 3.4910969 13.849354 3.546875 13.888672 C 3.6043934 13.929207 3.6665245 13.965594 3.7265625 14.003906 C 3.7850746 14.041428 3.8415406 14.081933 3.9023438 14.117188 C 3.9094463 14.121305 3.9167462 14.124782 3.9238281 14.128906 C 3.97522 14.158834 4.0249136 14.188602 4.078125 14.216797 C 4.079432 14.217489 4.0807215 14.21806 4.0820312 14.21875 C 4.2612638 14.313239 4.4461699 14.401211 4.640625 14.478516 C 4.640625 14.478516 4.6425781 14.478516 4.6425781 14.478516 C 4.8070504 14.543845 4.9809727 14.599313 5.1542969 14.652344 C 5.1960823 14.665005 5.2351969 14.68132 5.2773438 14.693359 C 5.2779436 14.693531 5.2786969 14.693188 5.2792969 14.693359 C 5.3367968 14.709677 5.3968458 14.721266 5.4550781 14.736328 C 5.6100314 14.776428 5.7662259 14.813024 5.9257812 14.84375 C 6.0070973 14.8594 6.0896051 14.873499 6.171875 14.886719 C 6.2753211 14.903339 6.3797136 14.914974 6.484375 14.927734 C 6.8387088 14.970874 7.1984993 14.999127 7.5585938 14.998047 C 7.5891528 14.997961 7.6198406 14.994541 7.6503906 14.994141 C 7.9951198 14.989541 8.3361152 14.961256 8.6738281 14.916016 C 8.7466911 14.906316 8.8203553 14.898359 8.8925781 14.886719 C 8.9929212 14.870519 9.0925552 14.851881 9.1914062 14.832031 C 9.3169584 14.806831 9.4418572 14.779147 9.5644531 14.748047 C 9.5728914 14.745905 9.5814113 14.744311 9.5898438 14.742188 C 9.6611645 14.724231 9.7325807 14.705444 9.8027344 14.685547 C 9.9286986 14.648986 10.05027 14.605524 10.171875 14.5625 C 10.190009 14.555971 10.208468 14.549555 10.226562 14.542969 C 10.300482 14.516039 10.377179 14.492241 10.449219 14.462891 C 10.632098 14.388437 10.807632 14.304893 10.976562 14.214844 C 10.268418 13.102247 4.8819026 13.536356 5 9.8925781 C 5.0510408 8.3177672 6.148048 6.9650784 7.4980469 7 C 8.5261904 7.0265965 9.8987714 7.3509746 10.732422 9.0507812 C 11.77952 8.6716139 9.3084228 4.9974905 6.4082031 5 z"/>
</svg>
